X:1
T:Biddy Mulligan, the Pride of the Coombe
M:3/4
L:1/4
K:C
 z2 e/2f/2| g e f| g2 a/2g/2| f d e| f2g/2-f/2| e c d| c B A| G3-|\
 G z G| c c d| e d c| B d d| d2 e/2f/2| g/2g/2 g g| f e d| c2 d| e2 e/2f/2|\
 g/2g/2 g g| f e d| c3-| c2 G/2G/2| c c c| e d c| A d e| f2e/2-f/2|\
 g e g| f d B| c3-| c2 G| c c c| e d c| A d e| f2 e/2f/2| g e g| f d B|\
 c3-| c e f| g g g| g a g| f d e| f2 g| e c c| c B c| d3-| d2 G/2G/2|\
 c c c| e d c| A d e| f2 e/2f/2| g e g| f d B| c3-| c2 z|
